app/[lang]/(home)/(new-home)/assets/ide-icons/lingma.svg

<svg
  width="64"
  height="64"
  viewBox="0 0 64 64"
  fill="none"
  xmlns="http://www.w3.org/2000/svg"
>
  <g opacity="0.7">
    <rect
      width="64"
      height="64"
      rx="10.6741"
      fill="url(#paint0_linear_33_1286)"
    />
    <path
      d="M56.5213 37.2705L50.3539 26.4691L53.0002 21.3978C53.3656 20.9161 53.4597 20.2075 53.3103 19.6372L49.9165 13.5085C49.6563 13.1044 49.2078 12.8552 48.7262 12.8442H36.1089L33.2854 7.90575C33.086 7.51821 32.704 7.25246 32.2722 7.20264H25.612C25.1193 7.21371 24.7705 7.57357 24.5269 7.99987L24.4217 8.17149L18.1213 18.9729H12.0757C11.5774 18.9618 11.1068 19.2109 10.8411 19.6372L7.35872 25.8047C7.13726 26.2476 7.13726 26.7736 7.35872 27.2165L13.6203 38.1064L10.7968 43.0449C10.5753 43.4878 10.5753 44.0082 10.7968 44.4566L14.0134 50.1037C14.2736 50.5355 14.7442 50.8068 15.248 50.8068H27.8598L30.8992 56.094C31.1317 56.4926 31.5414 56.7528 32.0009 56.8026H39.1428C39.6355 56.7916 40.0895 56.5258 40.3331 56.0995L46.5559 45.204H52.1144C52.6072 45.1597 53.0501 44.8829 53.3047 44.4566L56.5213 38.7708C56.8203 38.3113 56.8203 37.7244 56.5213 37.2705ZM48.7206 37.9791L45.504 32.0276L32.2722 55.3466L28.657 49.395H15.4307L18.6085 43.6206H25.3518L12.12 20.3846H19.0404L25.612 8.65316L28.9172 14.4276L25.5234 20.3791H51.9815L48.6321 26.2919L55.2923 37.9736H48.7206V37.9791Z"
      fill="white"
    />
    <path
      d="M31.9625 40.2203L40.2116 26.994H23.6746L31.9625 40.2203Z"
      fill="white"
    />
  </g>
  <defs>
    <linearGradient
      id="paint0_linear_33_1286"
      x1="32"
      y1="0"
      x2="32"
      y2="64"
      gradientUnits="userSpaceOnUse"
    >
      <stop stop-color="#131313" />
      <stop offset="1" stop-color="#3C3C3C" />
    </linearGradient>
  </defs>
</svg>

<svg xmlns="http://www.w3.org/2000/svg" fill="none" viewBox="0 0 64 64">
  <g opacity=".7">
    <rect width="64" height="64" fill="url(#a)" rx="10.67" />
    <path
      fill="#fff"
      d="m56.52 37.27-6.17-10.8L53 21.4c.37-.48.46-1.2.31-1.76l-3.4-6.13c-.25-.4-.7-.65-1.18-.67H36.1l-2.82-4.93c-.2-.4-.59-.66-1.02-.7h-6.66c-.5 0-.84.36-1.08.79l-.1.17-6.3 10.8h-6.05c-.5 0-.97.24-1.24.67L7.36 25.8c-.22.45-.22.97 0 1.42l6.26 10.89-2.82 4.93c-.22.45-.22.97 0 1.42L14 50.1c.26.44.73.7 1.24.7h12.61l3.04 5.3c.23.4.64.65 1.1.7h7.14c.5 0 .95-.27 1.2-.7l6.22-10.9h5.55c.5-.04.94-.32 1.2-.74l3.21-5.69c.3-.46.3-1.05 0-1.5Zm-7.8.7-3.22-5.94-13.23 23.32-3.61-5.95H15.43l3.18-5.78h6.74L12.12 20.38h6.92l6.57-11.73 3.3 5.78-3.39 5.95h26.46l-3.35 5.91 6.66 11.68h-6.57Z"
    />
    <path fill="#fff" d="m31.96 40.22 8.25-13.23H23.67l8.3 13.23Z" />
  </g>
  <defs>
    <linearGradient
      id="a"
      x1="32"
      x2="32"
      y1="0"
      y2="64"
      gradientUnits="userSpaceOnUse"
    >
      <stop stop-color="#131313" />
      <stop offset="1" stop-color="#3C3C3C" />
    </linearGradient>
  </defs>
</svg>
